assets/images/parnter5.svg

<svg width="150" height="150" viewBox="0 0 150 150" fill="none" xmlns="http://www.w3.org/2000/svg">
<g clip-path="url(#clip0_575_500)">
<path d="M150 0H0V150H150V0Z" fill="#003A7D"/>
<mask id="mask0_575_500" style="mask-type:luminance" maskUnits="userSpaceOnUse" x="0" y="0" width="150" height="150">
<path d="M150 0H0V150H150V0Z" fill="white"/>
</mask>
<g mask="url(#mask0_575_500)">
<path d="M104.354 40.9747C104.354 25.1013 93.0001 17.9241 79.557 17.9241H45.7216V28.8228H79.557C87.3798 28.8228 92.6583 33.2279 92.6583 41.2785C92.6583 49.6709 87.2659 53.6203 79.557 53.6203H45.6836V95.0507H57.038V64.519H74.4684L89.7722 95.0507H103.101L87.3418 63.5317C97.8228 60.9114 104.354 53.3165 104.354 40.9747Z" fill="white"/>
</g>
<mask id="mask1_575_500" style="mask-type:luminance" maskUnits="userSpaceOnUse" x="0" y="0" width="150" height="150">
<path d="M150 0H0V150H150V0Z" fill="white"/>
</mask>
<g mask="url(#mask1_575_500)">
<path d="M25.8603 120.38L23.392 115.405H20.6198V120.38H17.8477V106.557H24.2654C26.8856 106.557 29.0122 108 29.0122 110.924C29.0122 113.013 28.1388 114.304 26.354 114.987L29.0122 120.342H25.8603V120.38ZM24.2274 109.253H20.6198V112.823H24.2274C25.5185 112.823 26.2021 112.215 26.2021 111.038C26.2021 109.747 25.4426 109.253 24.2274 109.253Z" fill="white"/>
</g>
<mask id="mask2_575_500" style="mask-type:luminance" maskUnits="userSpaceOnUse" x="0" y="0" width="150" height="150">
<path d="M150 0H0V150H150V0Z" fill="white"/>
</mask>
<g mask="url(#mask2_575_500)">
<path d="M32.9238 120.38V106.557H42.5314V109.253H35.696V111.646H39.6833V114.342H35.696V117.684H42.8352V120.38H32.9238Z" fill="white"/>
</g>
<mask id="mask3_575_500" style="mask-type:luminance" maskUnits="userSpaceOnUse" x="0" y="0" width="150" height="150">
<path d="M150 0H0V150H150V0Z" fill="white"/>
</mask>
<g mask="url(#mask3_575_500)">
<path d="M53.3925 114.911V120.38H50.6204V114.987L45.3799 106.595H48.5698L50.5065 109.861C51.0001 110.696 51.7596 112.063 52.0255 112.557C52.2913 112.025 53.0128 110.734 53.5065 109.861L55.4432 106.595H58.5951L53.3925 114.911Z" fill="white"/>
</g>
<mask id="mask4_575_500" style="mask-type:luminance" maskUnits="userSpaceOnUse" x="0" y="0" width="150" height="150">
<path d="M150 0H0V150H150V0Z" fill="white"/>
</mask>
<g mask="url(#mask4_575_500)">
<path d="M70.1395 120.38L65.0508 112.823C64.7073 112.321 64.3904 111.801 64.1015 111.266C64.1015 111.798 64.1395 113.506 64.1395 114.304V120.38H61.4053V106.557H64.0635L68.9622 113.848C69.3058 114.35 69.6227 114.87 69.9116 115.405C69.9116 114.873 69.8736 113.165 69.8736 112.367V106.519H72.6078V120.342H70.1395V120.38Z" fill="white"/>
</g>
<mask id="mask5_575_500" style="mask-type:luminance" maskUnits="userSpaceOnUse" x="0" y="0" width="150" height="150">
<path d="M150 0H0V150H150V0Z" fill="white"/>
</mask>
<g mask="url(#mask5_575_500)">
<path d="M85.9369 120.38L84.8356 117.304H79.785L78.6837 120.38H75.7217L81.0002 106.557H83.6964L88.9369 120.38H85.9369ZM83.0128 112.139C82.747 111.342 82.4432 110.506 82.3293 109.975C82.1774 110.506 81.9116 111.304 81.6457 112.139L80.7723 114.646H83.9242L83.0128 112.139Z" fill="white"/>
</g>
<mask id="mask6_575_500" style="mask-type:luminance" maskUnits="userSpaceOnUse" x="0" y="0" width="150" height="150">
<path d="M150 0H0V150H150V0Z" fill="white"/>
</mask>
<g mask="url(#mask6_575_500)">
<path d="M92.5439 120.38V106.557H102.152V109.253H95.3161V111.646H99.2655V114.342H95.3161V117.684H102.455V120.38H92.5439Z" fill="white"/>
</g>
<mask id="mask7_575_500" style="mask-type:luminance" maskUnits="userSpaceOnUse" x="0" y="0" width="150" height="150">
<path d="M150 0H0V150H150V0Z" fill="white"/>
</mask>
<g mask="url(#mask7_575_500)">
<path d="M114.798 120.38L112.329 115.405H109.557V120.38H106.785V106.557H113.241C115.861 106.557 117.988 108 117.988 110.924C117.988 113.013 117.114 114.304 115.329 114.987L117.988 120.342H114.798V120.38ZM113.127 109.253H109.519V112.823H113.127C114.418 112.823 115.102 112.215 115.102 111.038C115.102 109.747 114.38 109.253 113.127 109.253Z" fill="white"/>
</g>
<mask id="mask8_575_500" style="mask-type:luminance" maskUnits="userSpaceOnUse" x="0" y="0" width="150" height="150">
<path d="M150 0H0V150H150V0Z" fill="white"/>
</mask>
<g mask="url(#mask8_575_500)">
<path d="M126.531 120.57C124.215 120.57 122.202 119.62 121.177 118.063L123.189 116.278C123.618 116.796 124.159 117.208 124.771 117.484C125.383 117.761 126.05 117.894 126.721 117.873C128.354 117.873 129.113 117.418 129.113 116.354C129.113 115.481 128.658 115.063 126.038 114.494C123.493 113.886 121.708 113.089 121.708 110.354C121.708 107.848 123.911 106.291 126.645 106.291C127.593 106.27 128.534 106.453 129.405 106.826C130.276 107.2 131.057 107.755 131.696 108.456L129.721 110.392C129.327 109.946 128.842 109.589 128.298 109.346C127.754 109.104 127.165 108.982 126.569 108.987C125.088 108.987 124.594 109.633 124.594 110.24C124.594 111.114 125.202 111.38 127.367 111.911C129.531 112.443 132 113.165 132 116.165C131.962 118.823 130.329 120.57 126.531 120.57Z" fill="white"/>
</g>
<mask id="mask9_575_500" style="mask-type:luminance" maskUnits="userSpaceOnUse" x="0" y="0" width="150" height="150">
<path d="M150 0H0V150H150V0Z" fill="white"/>
</mask>
<g mask="url(#mask9_575_500)">
<path d="M78.1899 131.962V131.43C77.8157 131.804 77.3133 132.021 76.7848 132.038C75.9494 132.038 75 131.582 75 130.291C75 129.152 75.8734 128.62 77.0506 128.62C77.4392 128.608 77.8264 128.672 78.1899 128.81V128.43C78.1899 127.861 77.8481 127.557 77.2025 127.557C76.7247 127.548 76.253 127.666 75.8354 127.899L75.4557 127.139C75.9949 126.82 76.6143 126.662 77.2405 126.684C78.3797 126.684 79.1772 127.253 79.1772 128.43V132H78.1899V131.962ZM78.1899 129.76C77.8232 129.585 77.418 129.506 77.0127 129.532C76.3671 129.532 75.9494 129.835 75.9494 130.291C75.9483 130.416 75.974 130.54 76.0249 130.654C76.0757 130.768 76.1505 130.87 76.2441 130.953C76.3376 131.036 76.4479 131.097 76.5674 131.134C76.6869 131.17 76.8128 131.181 76.9367 131.165C77.1798 131.154 77.4175 131.09 77.6338 130.979C77.8501 130.867 78.0398 130.711 78.1899 130.519V129.76Z" fill="white"/>
</g>
<mask id="mask10_575_500" style="mask-type:luminance" maskUnits="userSpaceOnUse" x="0" y="0" width="150" height="150">
<path d="M150 0H0V150H150V0Z" fill="white"/>
</mask>
<g mask="url(#mask10_575_500)">
<path d="M82.0635 131.962V125.316L83.0888 124.785V131.962H82.0635Z" fill="white"/>
</g>
<mask id="mask11_575_500" style="mask-type:luminance" maskUnits="userSpaceOnUse" x="0" y="0" width="150" height="150">
<path d="M150 0H0V150H150V0Z" fill="white"/>
</mask>
<g mask="url(#mask11_575_500)">
<path d="M89.1265 131.962V131.468C88.9747 131.665 88.7785 131.822 88.554 131.928C88.3296 132.033 88.0833 132.084 87.8354 132.076C86.6202 132.076 85.9746 131.279 85.9746 129.76V126.797H86.9999V129.722C86.9999 130.785 87.3797 131.127 88.0632 131.127C88.7468 131.127 89.1265 130.633 89.1265 129.797V126.76H90.1518V131.924H89.1265V131.962Z" fill="white"/>
</g>
<mask id="mask12_575_500" style="mask-type:luminance" maskUnits="userSpaceOnUse" x="0" y="0" width="150" height="150">
<path d="M150 0H0V150H150V0Z" fill="white"/>
</mask>
<g mask="url(#mask12_575_500)">
<path d="M99.0761 131.962V129.038C99.0761 127.975 98.7343 127.633 98.0887 127.633C97.4431 127.633 97.1014 128.127 97.1014 128.962V132H96.0381V129.076C96.0381 128.013 95.6963 127.671 95.0507 127.671C94.4052 127.671 94.0634 128.164 94.0634 129V132.038H93.0381V126.797H94.0634V127.291C94.2272 127.089 94.4366 126.929 94.6745 126.824C94.9123 126.719 95.1718 126.671 95.4314 126.686C95.6911 126.701 95.9435 126.777 96.1678 126.909C96.3921 127.041 96.5819 127.224 96.7216 127.443C96.9037 127.194 97.1448 126.994 97.4232 126.862C97.7016 126.729 98.0086 126.668 98.3166 126.683C99.5318 126.683 100.101 127.481 100.101 129V131.962H99.0761Z" fill="white"/>
</g>
<mask id="mask13_575_500" style="mask-type:luminance" maskUnits="userSpaceOnUse" x="0" y="0" width="150" height="150">
<path d="M150 0H0V150H150V0Z" fill="white"/>
</mask>
<g mask="url(#mask13_575_500)">
<path d="M103.481 126.114C103.309 126.114 103.145 126.046 103.024 125.925C102.903 125.804 102.835 125.64 102.835 125.468C102.835 125.297 102.903 125.133 103.024 125.012C103.145 124.891 103.309 124.823 103.481 124.823C103.652 124.823 103.816 124.891 103.937 125.012C104.058 125.133 104.126 125.297 104.126 125.468C104.126 125.64 104.058 125.804 103.937 125.925C103.816 126.046 103.652 126.114 103.481 126.114ZM102.949 126.797H103.974V131.962H102.949V126.797Z" fill="white"/>
</g>
<mask id="mask14_575_500" style="mask-type:luminance" maskUnits="userSpaceOnUse" x="0" y="0" width="150" height="150">
<path d="M150 0H0V150H150V0Z" fill="white"/>
</mask>
<g mask="url(#mask14_575_500)">
<path d="M110.05 131.962V129.038C110.05 127.975 109.671 127.633 108.987 127.633C108.304 127.633 107.924 128.127 107.924 128.962V132H106.898V126.797H107.924V127.291C108.076 127.095 108.272 126.938 108.496 126.832C108.721 126.726 108.967 126.676 109.215 126.684C110.43 126.684 111.076 127.481 111.076 129V131.962H110.05Z" fill="white"/>
</g>
<mask id="mask15_575_500" style="mask-type:luminance" maskUnits="userSpaceOnUse" x="0" y="0" width="150" height="150">
<path d="M150 0H0V150H150V0Z" fill="white"/>
</mask>
<g mask="url(#mask15_575_500)">
<path d="M114.493 126.114C114.322 126.114 114.158 126.046 114.037 125.925C113.916 125.804 113.848 125.64 113.848 125.468C113.848 125.297 113.916 125.133 114.037 125.012C114.158 124.891 114.322 124.823 114.493 124.823C114.664 124.823 114.829 124.891 114.95 125.012C115.071 125.133 115.139 125.297 115.139 125.468C115.139 125.64 115.071 125.804 114.95 125.925C114.829 126.046 114.664 126.114 114.493 126.114ZM113.962 126.797H114.987V131.962H113.962V126.797Z" fill="white"/>
</g>
<mask id="mask16_575_500" style="mask-type:luminance" maskUnits="userSpaceOnUse" x="0" y="0" width="150" height="150">
<path d="M150 0H0V150H150V0Z" fill="white"/>
</mask>
<g mask="url(#mask16_575_500)">
<path d="M121.025 131.962V131.468C120.873 131.665 120.677 131.822 120.452 131.928C120.228 132.033 119.982 132.084 119.734 132.076C118.519 132.076 117.873 131.279 117.873 129.76V126.797H118.898V129.722C118.898 130.785 119.278 131.127 119.962 131.127C120.645 131.127 121.025 130.633 121.025 129.797V126.76H122.05V131.924H121.025V131.962Z" fill="white"/>
</g>
<mask id="mask17_575_500" style="mask-type:luminance" maskUnits="userSpaceOnUse" x="0" y="0" width="150" height="150">
<path d="M150 0H0V150H150V0Z" fill="white"/>
</mask>
<g mask="url(#mask17_575_500)">
<path d="M130.937 131.962V129.038C130.937 127.975 130.595 127.633 129.949 127.633C129.304 127.633 128.962 128.127 128.962 128.962V132H127.937V129.076C127.937 128.013 127.595 127.671 126.949 127.671C126.304 127.671 125.962 128.165 125.962 129V132.038H124.937V126.797H125.962V127.291C126.126 127.089 126.335 126.929 126.573 126.824C126.811 126.719 127.07 126.671 127.33 126.686C127.589 126.701 127.842 126.777 128.066 126.909C128.291 127.041 128.48 127.224 128.62 127.443C128.799 127.191 129.04 126.989 129.319 126.856C129.598 126.723 129.906 126.664 130.215 126.684C131.43 126.684 132 127.481 132 129V131.962H130.937Z" fill="white"/>
</g>
</g>
<defs>
<clipPath id="clip0_575_500">
<rect width="150" height="150" fill="white"/>
</clipPath>
</defs>
</svg>

<svg width="150" height="150" fill="none" xmlns="http://www.w3.org/2000/svg"><g clip-path="url(#a)"><path d="M150 0H0v150h150V0Z" fill="#003A7D"/><mask id="b" style="mask-type:luminance" maskUnits="userSpaceOnUse" x="0" y="0" width="150" height="150"><path d="M150 0H0v150h150V0Z" fill="#fff"/></mask><g mask="url(#b)"><path d="M104.354 40.975c0-15.874-11.354-23.05-24.797-23.05H45.722v10.898h33.835c7.823 0 13.101 4.405 13.101 12.456 0 8.392-5.392 12.341-13.101 12.341H45.684v41.43h11.354V64.52h17.43l15.304 30.532h13.329l-15.76-31.52c10.482-2.62 17.013-10.215 17.013-22.556Z" fill="#fff"/></g><mask id="c" style="mask-type:luminance" maskUnits="userSpaceOnUse" x="0" y="0" width="150" height="150"><path d="M150 0H0v150h150V0Z" fill="#fff"/></mask><g mask="url(#c)"><path d="m25.86 120.38-2.468-4.975H20.62v4.975h-2.772v-13.823h6.417c2.62 0 4.747 1.443 4.747 4.367 0 2.089-.873 3.38-2.658 4.063l2.658 5.355H25.86v.038Zm-1.633-11.127H20.62v3.57h3.607c1.291 0 1.975-.608 1.975-1.785 0-1.291-.76-1.785-1.975-1.785Z" fill="#fff"/></g><mask id="d" style="mask-type:luminance" maskUnits="userSpaceOnUse" x="0" y="0" width="150" height="150"><path d="M150 0H0v150h150V0Z" fill="#fff"/></mask><g mask="url(#d)"><path d="M32.924 120.38v-13.823h9.607v2.696h-6.835v2.393h3.987v2.696h-3.987v3.342h7.14v2.696h-9.912Z" fill="#fff"/></g><mask id="e" style="mask-type:luminance" maskUnits="userSpaceOnUse" x="0" y="0" width="150" height="150"><path d="M150 0H0v150h150V0Z" fill="#fff"/></mask><g mask="url(#e)"><path d="M53.392 114.911v5.469H50.62v-5.393l-5.24-8.392h3.19l1.937 3.266a101.99 101.99 0 0 1 1.519 2.696c.265-.532.987-1.823 1.48-2.696l1.937-3.266h3.152l-5.203 8.316Z" fill="#fff"/></g><mask id="f" style="mask-type:luminance" maskUnits="userSpaceOnUse" x="0" y="0" width="150" height="150"><path d="M150 0H0v150h150V0Z" fill="#fff"/></mask><g mask="url(#f)"><path d="m70.14 120.38-5.09-7.557a17.387 17.387 0 0 1-.948-1.557c0 .532.037 2.24.037 3.038v6.076h-2.734v-13.823h2.659l4.898 7.291c.344.502.66 1.022.95 1.557 0-.532-.038-2.24-.038-3.038v-5.848h2.734v13.823h-2.469v.038Z" fill="#fff"/></g><mask id="g" style="mask-type:luminance" maskUnits="userSpaceOnUse" x="0" y="0" width="150" height="150"><path d="M150 0H0v150h150V0Z" fill="#fff"/></mask><g mask="url(#g)"><path d="m85.937 120.38-1.101-3.076h-5.051l-1.101 3.076h-2.962L81 106.557h2.696l5.24 13.823h-3Zm-2.924-8.241c-.266-.797-.57-1.633-.684-2.164-.152.531-.417 1.329-.683 2.164l-.874 2.507h3.152l-.911-2.507Z" fill="#fff"/></g><mask id="h" style="mask-type:luminance" maskUnits="userSpaceOnUse" x="0" y="0" width="150" height="150"><path d="M150 0H0v150h150V0Z" fill="#fff"/></mask><g mask="url(#h)"><path d="M92.544 120.38v-13.823h9.608v2.696h-6.836v2.393h3.95v2.696h-3.95v3.342h7.139v2.696h-9.911Z" fill="#fff"/></g><mask id="i" style="mask-type:luminance" maskUnits="userSpaceOnUse" x="0" y="0" width="150" height="150"><path d="M150 0H0v150h150V0Z" fill="#fff"/></mask><g mask="url(#i)"><path d="m114.798 120.38-2.469-4.975h-2.772v4.975h-2.772v-13.823h6.456c2.62 0 4.747 1.443 4.747 4.367 0 2.089-.874 3.38-2.659 4.063l2.659 5.355h-3.19v.038Zm-1.671-11.127h-3.608v3.57h3.608c1.291 0 1.975-.608 1.975-1.785 0-1.291-.722-1.785-1.975-1.785Z" fill="#fff"/></g><mask id="j" style="mask-type:luminance" maskUnits="userSpaceOnUse" x="0" y="0" width="150" height="150"><path d="M150 0H0v150h150V0Z" fill="#fff"/></mask><g mask="url(#j)"><path d="M126.531 120.57c-2.316 0-4.329-.95-5.354-2.507l2.012-1.785a4.404 4.404 0 0 0 3.532 1.595c1.633 0 2.392-.455 2.392-1.519 0-.873-.455-1.291-3.075-1.86-2.545-.608-4.33-1.405-4.33-4.14 0-2.506 2.203-4.063 4.937-4.063a6.638 6.638 0 0 1 5.051 2.165l-1.975 1.936a4.166 4.166 0 0 0-1.423-1.046 4.165 4.165 0 0 0-1.729-.359c-1.481 0-1.975.646-1.975 1.253 0 .874.608 1.14 2.773 1.671 2.164.532 4.633 1.254 4.633 4.254-.038 2.658-1.671 4.405-5.469 4.405Z" fill="#fff"/></g><mask id="k" style="mask-type:luminance" maskUnits="userSpaceOnUse" x="0" y="0" width="150" height="150"><path d="M150 0H0v150h150V0Z" fill="#fff"/></mask><g mask="url(#k)"><path d="M78.19 131.962v-.532a2.082 2.082 0 0 1-1.405.608c-.836 0-1.785-.456-1.785-1.747 0-1.139.873-1.671 2.05-1.671.39-.012.776.052 1.14.19v-.38c0-.569-.342-.873-.987-.873a2.701 2.701 0 0 0-1.368.342l-.38-.76a3.28 3.28 0 0 1 1.785-.455c1.14 0 1.937.569 1.937 1.746V132h-.987v-.038Zm0-2.202a2.38 2.38 0 0 0-1.177-.228c-.646 0-1.064.303-1.064.759a.872.872 0 0 0 .988.874 1.695 1.695 0 0 0 1.253-.646v-.759Z" fill="#fff"/></g><mask id="l" style="mask-type:luminance" maskUnits="userSpaceOnUse" x="0" y="0" width="150" height="150"><path d="M150 0H0v150h150V0Z" fill="#fff"/></mask><g mask="url(#l)"><path d="M82.064 131.962v-6.646l1.025-.531v7.177h-1.025Z" fill="#fff"/></g><mask id="m" style="mask-type:luminance" maskUnits="userSpaceOnUse" x="0" y="0" width="150" height="150"><path d="M150 0H0v150h150V0Z" fill="#fff"/></mask><g mask="url(#m)"><path d="M89.126 131.962v-.494a1.565 1.565 0 0 1-1.29.608c-1.216 0-1.861-.797-1.861-2.316v-2.963H87v2.925c0 1.063.38 1.405 1.063 1.405.684 0 1.063-.494 1.063-1.33v-3.037h1.026v5.164h-1.026v.038Z" fill="#fff"/></g><mask id="n" style="mask-type:luminance" maskUnits="userSpaceOnUse" x="0" y="0" width="150" height="150"><path d="M150 0H0v150h150V0Z" fill="#fff"/></mask><g mask="url(#n)"><path d="M99.076 131.962v-2.924c0-1.063-.342-1.405-.987-1.405-.646 0-.988.494-.988 1.329V132h-1.063v-2.924c0-1.063-.342-1.405-.987-1.405-.646 0-.988.493-.988 1.329v3.038h-1.025v-5.241h1.025v.494a1.638 1.638 0 0 1 2.105-.382c.224.132.414.315.554.534a1.854 1.854 0 0 1 1.595-.76c1.215 0 1.784.798 1.784 2.317v2.962h-1.025Z" fill="#fff"/></g><mask id="o" style="mask-type:luminance" maskUnits="userSpaceOnUse" x="0" y="0" width="150" height="150"><path d="M150 0H0v150h150V0Z" fill="#fff"/></mask><g mask="url(#o)"><path d="M103.481 126.114a.645.645 0 1 1-.001-1.291.645.645 0 0 1 .001 1.291Zm-.532.683h1.025v5.165h-1.025v-5.165Z" fill="#fff"/></g><mask id="p" style="mask-type:luminance" maskUnits="userSpaceOnUse" x="0" y="0" width="150" height="150"><path d="M150 0H0v150h150V0Z" fill="#fff"/></mask><g mask="url(#p)"><path d="M110.05 131.962v-2.924c0-1.063-.379-1.405-1.063-1.405-.683 0-1.063.494-1.063 1.329V132h-1.026v-5.203h1.026v.494a1.566 1.566 0 0 1 1.291-.607c1.215 0 1.861.797 1.861 2.316v2.962h-1.026Z" fill="#fff"/></g><mask id="q" style="mask-type:luminance" maskUnits="userSpaceOnUse" x="0" y="0" width="150" height="150"><path d="M150 0H0v150h150V0Z" fill="#fff"/></mask><g mask="url(#q)"><path d="M114.493 126.114a.645.645 0 1 1 0-1.29.645.645 0 0 1 0 1.29Zm-.531.683h1.025v5.165h-1.025v-5.165Z" fill="#fff"/></g><mask id="r" style="mask-type:luminance" maskUnits="userSpaceOnUse" x="0" y="0" width="150" height="150"><path d="M150 0H0v150h150V0Z" fill="#fff"/></mask><g mask="url(#r)"><path d="M121.025 131.962v-.494a1.565 1.565 0 0 1-1.291.608c-1.215 0-1.861-.797-1.861-2.316v-2.963h1.025v2.925c0 1.063.38 1.405 1.064 1.405.683 0 1.063-.494 1.063-1.33v-3.037h1.025v5.164h-1.025v.038Z" fill="#fff"/></g><mask id="s" style="mask-type:luminance" maskUnits="userSpaceOnUse" x="0" y="0" width="150" height="150"><path d="M150 0H0v150h150V0Z" fill="#fff"/></mask><g mask="url(#s)"><path d="M130.937 131.962v-2.924c0-1.063-.342-1.405-.988-1.405-.645 0-.987.494-.987 1.329V132h-1.025v-2.924c0-1.063-.342-1.405-.988-1.405-.645 0-.987.494-.987 1.329v3.038h-1.025v-5.241h1.025v.494a1.639 1.639 0 0 1 2.658.152 1.816 1.816 0 0 1 1.595-.759c1.215 0 1.785.797 1.785 2.316v2.962h-1.063Z" fill="#fff"/></g></g><defs><clipPath id="a"><path fill="#fff" d="M0 0h150v150H0z"/></clipPath></defs></svg>
